packages/ui/src/lib/icons/svg/commit-ai.svg

<svg width="100%" height="100%" viewBox="0 0 16 16" fill="none" xmlns="http://www.w3.org/2000/svg">
<path d="M15 9.5H11.8571C11.8571 11.7091 10.1302 13.5 8 13.5C5.86976 13.5 4.14286 11.7091 4.14286 9.5H1" stroke="currentColor" stroke-width="1.5"/>
<path d="M9.16424 6.33612L8.9412 6.4473L8.82933 6.67103L8 8.32486L7.17067 6.67103L7.0588 6.4473L6.83576 6.33612L5.18124 5.5061L6.83576 4.67746L7.05949 4.5656L7.17067 4.34255L8 2.68734L8.82933 4.34255L8.94051 4.5656L9.16424 4.67746L10.8188 5.5061L9.16424 6.33612Z" stroke="currentColor" stroke-width="1.5"/>
</svg>

<svg xmlns="http://www.w3.org/2000/svg" fill="none" viewBox="0 0 16 16" width="100%" height="100%"><path stroke="currentColor" stroke-width="1.5" d="M15 9.5h-3.143c0 2.21-1.727 4-3.857 4s-3.857-1.79-3.857-4H1m8.164-3.164-.223.111-.112.224L8 8.325 7.17 6.67l-.111-.224-.223-.11-1.655-.83 1.655-.83.223-.111.112-.223L8 2.687l.83 1.656.11.223.224.111 1.655.83z"/></svg>
